X:1
T:Title
%%score ( 1 2 ) ( 3 4 ) ( 5 6 )
L:1/8
Q:1/4=110
M:4/4
K:Bb
V:1 treble nm="Grand Piano, Staff 1"
V:2 treble 
V:3 bass nm="Drawbar Organ, Staff-1"
V:4 bass 
V:5 bass nm="Choir Pad, Hear the Word"
V:6 bass 
V:1
 [DF]>[EG] [DF]>[CE] [B,D]>[DF] [DB]>[Ec] | [DB]2 [CA]2 [EA]4 | %2
w: By~Julia~Harriette~Johnston,~1897 * * * * * * *||
 [Ec]>[Ed] [Ec]>[DB] [EA]>[EF] [EG]>[EA] | [Ec]2 [DB]2 [DB]4 | %4
w: ||
 [Fd]>[Ge] [Fd]>[Ec] [DB]>[DF] [_D=E]>[=DF] | [EG]2 [Ec]2 [Ge]4 | [Fd]>[Fe] [Fd]>[Ec] [DB]2 [EA]2 | %7
w: |||
 [DB]8 | F4 B2 [FA]2 | [EG]6 z2 | G4 c2 [GB]2 | [FA]6 z2 | A4 d2 [Ac]2 | B2- [_AB]2 [Ge]4 | %14
w: |||||||
 [Fd]>[Fe] [Fd]>[Ec] [DB]2 [EA]2 | [DB]8 |] %16
w: ||
V:2
 x8 | x8 | x8 | x8 | x8 | x8 | x8 | x8 | D6 z2 | x8 | =E6 z2 | x8 | ^F6 z2 | G2 z2 z4 | x8 | x8 |] %16
V:3
 z8 | z8 | z8 | z8 | z8 | z8 | z8 | z8 | [B,,B,]2 [B,,B,]2 [B,,F,]2 [D,B,]2 | z4 B,4 | %10
 [C,C]2 [C,C]2 [C,G,]2 [=E,C]2 | z4 C4 | [D,D]2 [D,D]2 [D,A,]2 [^F,E]2 | [G,D]2 [F,B,]2 [E,B,]4 | %14
 z8 | z8 |] %16
V:4
 x8 | x8 | x8 | x8 | x8 | x8 | x8 | x8 | x8 | [E,B,]2 [E,B,]2 E,2 D,2 | x8 | %11
 [F,C]2 [F,C]2 F,2 E,2 | x8 | x8 | x8 | x8 |] %16
V:5
 [B,,B,]>[B,,B,] [B,,B,]>[B,,F,] [B,,F,]>[B,,F,] [B,,F,]>[B,,F,] | F,2 [F,A,]2 [A,C]4 | %2
 [F,A,]>[F,A,] [F,A,]>[F,B,] [F,C]>[F,C] [F,C]>[F,C] | [B,,B,]2 [B,,F,]2 [B,,F,]4 | %4
 [B,,B,]>[B,,B,] [B,,B,]>[B,,B,] [B,,F,]>[B,,F,] [B,,B,]>[B,,B,] | [E,B,]2 [E,G,]2 [E,B,]4 | %6
 [F,B,]>[F,B,] [F,B,]>[F,A,] [F,B,]2 [F,C]2 | [B,,B,]8 | [B,,B,]2 [B,,B,]2 [B,,F,]2 [D,B,]2 | %9
 z4 B,4 | [C,C]2 [C,C]2 [C,G,]2 [=E,C]2 | z4 C4 | [D,D]2 [D,D]2 [D,A,]2 [^F,E]2 | %13
 [G,D]2 [F,B,]2 [E,B,]4 | [F,B,]>[F,B,] [F,B,]>[F,A,] [F,B,]2 [F,C]2 | [B,,B,]8 |] %16
V:6
 x8 | x8 | x8 | x8 | x8 | x8 | x8 | x8 | x8 | [E,B,]2 [E,B,]2 E,2 D,2 | x8 | %11
 [F,C]2 [F,C]2 F,2 E,2 | x8 | x8 | x8 | x8 |] %16

